src/assets/duotone/EmptyWalletAdd.svg

<?xml version="1.0" encoding="UTF-8"?>
<svg width="25" height="24" viewBox="0 0 25 24" xmlns="http://www.w3.org/2000/svg">
 <path d="m19.944 12.605h1.9662v-1.4016c0-2.0149-1.645-3.6598-3.6598-3.6598h-11.174c-2.0148 0-3.6598 1.645-3.6598 3.6598v4.2535c0.67162-0.5353 1.5184-0.8565 2.4334-0.8565 2.1511 0 3.8934 1.7422 3.8934 3.8934 0 0.73-0.20441 1.421-0.56455 2.0051-0.2044 0.3504-0.46721 0.6618-0.76895 0.9149h9.8406c2.0148 0 3.6598-1.645 3.6598-3.6598v-1.1583h-1.8494c-1.0512 0-2.0148-0.7689-2.1024-1.8202-0.0584-0.6132 0.1752-1.1874 0.584-1.5865 0.3601-0.3699 0.8565-0.584 1.4016-0.584z" opacity=".4"/>
 <path d="m15.437 3.8448v3.6987h-8.3611c-2.0148 0-3.6598 1.645-3.6598 3.6598v-3.5722c0-1.1583 0.71055-2.1901 1.791-2.5989l7.7284-2.92c1.2069-0.44774 2.5015 0.43804 2.5015 1.7326z"/>
 <path d="m22.943 13.598v2.0051c0 0.5354-0.4282 0.9734-0.9733 0.9928h-1.9078c-1.0512 0-2.0148-0.7689-2.1024-1.8201-0.0584-0.6133 0.1752-1.1875 0.584-1.5866 0.3601-0.3699 0.8565-0.584 1.4016-0.584h2.0246c0.5451 0.0195 0.9733 0.4574 0.9733 0.9928z"/>
 <path d="m14.61 12.41h-6.8135c-0.39907 0-0.73001-0.3309-0.73001-0.73s0.33094-0.73 0.73001-0.73h6.8135c0.399 0 0.73 0.3309 0.73 0.73s-0.331 0.73-0.73 0.73z"/>
 <path d="m8.6032 15.741c-0.64697-0.6469-1.4729-1.0186-2.3263-1.115-1.1356-0.1307-2.3126 0.2478-3.1798 1.115-0.5162 0.5162-0.86033 1.1494-1.0186 1.817-0.32348 1.2733 0.01376 2.6843 1.0186 3.6891 0.69514 0.6952 1.583 1.0737 2.4984 1.1219 0.39231 0.0344 0.79839 0 1.1907-0.1032 0.66761-0.1583 1.3008-0.5025 1.817-1.0187 1.521-1.521 1.521-3.985 0-5.5061zm-3.4689 1.294c0-0.3992 0.33036-0.7296 0.72955-0.7296 0.40608 0.0069 0.72956 0.3304 0.73645 0.7365l-0.00686 0.7226 0.69515-0.0069c0.40608 0.0069 0.72956 0.3304 0.73644 0.7365-0.00688 0.406-0.33037 0.7295-0.73644 0.7364l-0.69515-0.0069 0.00687 0.7227c-0.00689 0.4061-0.33037 0.7296-0.73645 0.7365-0.1996-0.0069-0.37852-0.0895-0.50929-0.2203s-0.21338-0.3097-0.22027-0.5093l2e-5 -0.7296h-0.75708c-0.20648 0-0.38545-0.0826-0.51622-0.2133-0.13077-0.1308-0.21334-0.3098-0.21334-0.5162 0-0.3992 0.33037-0.7296 0.72956-0.7296h0.75708l-2e-5 -0.7295z"/>
</svg>

<svg width="25" height="24" viewBox="0 0 25 24"  xmlns="http://www.w3.org/2000/svg">
<path opacity="0.4" d="M19.944 12.6049H21.9102V11.2033C21.9102 9.18843 20.2652 7.54346 18.2504 7.54346H7.07631C5.06147 7.54346 3.4165 9.18843 3.4165 11.2033V15.4568C4.08812 14.9215 4.93493 14.6003 5.84988 14.6003C8.00099 14.6003 9.74329 16.3425 9.74329 18.4937C9.74329 19.2237 9.53888 19.9147 9.17874 20.4988C8.97434 20.8492 8.71153 21.1606 8.40979 21.4137H18.2504C20.2652 21.4137 21.9102 19.7687 21.9102 17.7539V16.5956H20.0608C19.0096 16.5956 18.046 15.8267 17.9584 14.7754C17.9 14.1622 18.1336 13.588 18.5424 13.1889C18.9025 12.819 19.3989 12.6049 19.944 12.6049Z" />
<path d="M15.4374 3.84484V7.54356H7.07631C5.06147 7.54356 3.4165 9.18854 3.4165 11.2034V7.63119C3.4165 6.4729 4.12705 5.44111 5.20747 5.0323L12.9359 2.11225C14.1428 1.66451 15.4374 2.55029 15.4374 3.84484Z" />
<path d="M22.9426 13.5979V15.603C22.9426 16.1384 22.5144 16.5764 21.9693 16.5958H20.0615C19.0103 16.5958 18.0467 15.8269 17.9591 14.7757C17.9007 14.1624 18.1343 13.5882 18.5431 13.1891C18.9032 12.8192 19.3996 12.6051 19.9447 12.6051H21.9693C22.5144 12.6246 22.9426 13.0625 22.9426 13.5979Z" />
<path d="M14.6099 12.4102H7.79642C7.39735 12.4102 7.06641 12.0793 7.06641 11.6802C7.06641 11.2811 7.39735 10.9502 7.79642 10.9502H14.6099C15.0089 10.9502 15.3399 11.2811 15.3399 11.6802C15.3399 12.0793 15.0089 12.4102 14.6099 12.4102Z" />
<path d="M8.60315 15.7407C7.95618 15.0938 7.13026 14.7221 6.27682 14.6257C5.14118 14.495 3.96426 14.8735 3.09705 15.7407C2.58085 16.2569 2.23672 16.8901 2.07842 17.5577C1.75494 18.831 2.09218 20.242 3.09705 21.2468C3.79219 21.942 4.68005 22.3205 5.59544 22.3687C5.98775 22.4031 6.39383 22.3687 6.78614 22.2655C7.45375 22.1072 8.08695 21.763 8.60315 21.2468C10.1242 19.7258 10.1242 17.2618 8.60315 15.7407ZM5.13429 17.0347C5.13429 16.6355 5.46465 16.3051 5.86384 16.3051C6.26992 16.312 6.5934 16.6355 6.60029 17.0416L6.59343 17.7642L7.28858 17.7573C7.69466 17.7642 8.01814 18.0877 8.02502 18.4938C8.01814 18.8998 7.69465 19.2233 7.28858 19.2302L6.59343 19.2233L6.6003 19.946C6.59341 20.3521 6.26993 20.6756 5.86385 20.6825C5.66425 20.6756 5.48533 20.593 5.35456 20.4622C5.22379 20.3314 5.14118 20.1525 5.13429 19.9529L5.13431 19.2233L4.37723 19.2233C4.17075 19.2233 3.99178 19.1407 3.86101 19.01C3.73024 18.8792 3.64767 18.7002 3.64767 18.4938C3.64767 18.0946 3.97804 17.7642 4.37723 17.7642L5.13431 17.7642L5.13429 17.0347Z" />
</svg>
